material/.icons/material/robot-mower-outline.svg

<svg xmlns="http://www.w3.org/2000/svg" viewBox="0 0 24 24"><path d="M1 14a5.002 5.002 0 009 3h5.17A3 3 0 0018 19c1.31 0 2.42-.83 2.83-2H23v-2c0-5.5-4.5-10-10-10H1v9m20 1H10.9A5.002 5.002 0 003 10V7h9.5c2.6 0 4.92 1.16 6.5 3h-4v2h5.25c.42.92.67 1.94.75 3M6 11c1.66 0 3 1.34 3 3s-1.34 3-3 3-3-1.34-3-3 1.34-3 3-3z"/></svg>

<?xml version="1.0" encoding="UTF-8"?><!DOCTYPE svg PUBLIC "-//W3C//DTD SVG 1.1//EN" "http://www.w3.org/Graphics/SVG/1.1/DTD/svg11.dtd"><svg xmlns="http://www.w3.org/2000/svg" xmlns:xlink="http://www.w3.org/1999/xlink" version="1.1" id="mdi-robot-mower-outline" width="24" height="24" viewBox="0 0 24 24"><path d="M1 14C1 16.76 3.24 19 6 19C7.64 19 9.09 18.21 10 17H15.17C15.58 18.17 16.7 19 18 19C19.31 19 20.42 18.17 20.83 17H23V15C23 9.5 18.5 5 13 5H1V14M21 15H10.9C10.97 14.68 11 14.34 11 14C11 11.24 8.76 9 6 9C4.87 9 3.84 9.37 3 10V7H12.5C15.1 7 17.42 8.16 19 10H15V12H20.25C20.67 12.92 20.92 13.94 21 15M6 11C7.66 11 9 12.34 9 14C9 15.66 7.66 17 6 17C4.34 17 3 15.66 3 14C3 12.34 4.34 11 6 11Z" /></svg>
